Catalina-light/actions/16/kdenlive-track_has_effect.svg

<?xml version="1.0" encoding="UTF-8" standalone="no"?>
<svg
   xmlns:dc="http://purl.org/dc/elements/1.1/"
   xmlns:cc="http://creativecommons.org/ns#"
   xmlns:rdf="http://www.w3.org/1999/02/22-rdf-syntax-ns#"
   xmlns:svg="http://www.w3.org/2000/svg"
   xmlns="http://www.w3.org/2000/svg"
   xmlns:sodipodi="http://sodipodi.sourceforge.net/DTD/sodipodi-0.dtd"
   xmlns:inkscape="http://www.inkscape.org/namespaces/inkscape"
   width="16"
   height="16"
   version="1.1"
   id="svg7"
   sodipodi:docname="kdenlive-track_has_effect.svg"
   inkscape:version="0.92.4 (unknown)">
  <metadata
     id="metadata11">
    <rdf:RDF>
      <cc:Work
         rdf:about="">
        <dc:format>image/svg+xml</dc:format>
        <dc:type
           rdf:resource="http://purl.org/dc/dcmitype/StillImage" />
        <dc:title></dc:title>
      </cc:Work>
    </rdf:RDF>
  </metadata>
  <sodipodi:namedview
     pagecolor="#ffffff"
     bordercolor="#666666"
     borderopacity="1"
     objecttolerance="10"
     gridtolerance="10"
     guidetolerance="10"
     inkscape:pageopacity="0"
     inkscape:pageshadow="2"
     inkscape:window-width="1920"
     inkscape:window-height="1016"
     id="namedview9"
     showgrid="false"
     inkscape:zoom="12"
     inkscape:cx="-17.506152"
     inkscape:cy="7.1591882"
     inkscape:window-x="0"
     inkscape:window-y="27"
     inkscape:window-maximized="1"
     inkscape:current-layer="svg7" />
  <defs
     id="defs3">
    <style
       id="current-color-scheme"
       type="text/css">.ColorScheme-Text { color:#565656; }</style>
    <style
       type="text/css"
       id="current-color-scheme-3">.ColorScheme-Text { color:#565656; }</style>
    <style
       id="current-color-scheme-36"
       type="text/css">
      .ColorScheme-Text {
        color:#666666;
      }
      </style>
  </defs>
  <path
     class="ColorScheme-Text"
     d="M 7.9999997,1.225911 6.0124781,6.384113 0.49991793,6.6748481 4.7843396,10.163669 3.3686992,15.500062 7.9999997,12.498926 12.6313,15.500062 11.21566,10.163669 15.500081,6.6748481 9.9875223,6.384113 Z"
     id="path5"
     inkscape:connector-curvature="0"
     style="color:#565656;opacity:1;fill:none;fill-opacity:0.8;stroke:#565656;stroke-width:1;stroke-linecap:round;stroke-linejoin:round;stroke-miterlimit:4;stroke-dasharray:none;stroke-opacity:0.8" />
  <path
     style="opacity:1;fill:#525252;fill-opacity:0.67826086;stroke:none;stroke-width:0.99999994;stroke-linecap:round;stroke-linejoin:round;stroke-miterlimit:4;stroke-dasharray:none;stroke-dashoffset:0;stroke-opacity:0.86666667"
     d="M 8.0001909,2.5644148 9.6485423,6.8432885 14.220621,7.0835314 10.66739,9.9773669 11.840884,14.403663 8.0001909,11.915691 4.1594974,14.403663 5.3329924,9.9773669 1.77976,7.0835314 6.3518404,6.8432885 Z"
     id="rect816"
     inkscape:connector-curvature="0"
     sodipodi:nodetypes="ccccccccccc" />
</svg>

<svg width="16" height="16" version="1.1" xmlns="http://www.w3.org/2000/svg">
<defs>
<style id="current-color-scheme" type="text/css">.ColorScheme-Text { color:#565656; }</style>
<style id="current-color-scheme-3" type="text/css">.ColorScheme-Text { color:#565656; }</style>
<style id="current-color-scheme-36" type="text/css">.ColorScheme-Text {
        color:#666666;
      }</style>
</defs>
<path class="ColorScheme-Text" d="m8 1.2259-1.9875 5.1582-5.5126 0.29074 4.2844 3.4888-1.4156 5.3364 4.6313-3.0011 4.6313 3.0011-1.4156-5.3364 4.2844-3.4888-5.5126-0.29074z" color="#565656" fill="none" stroke="#565656" stroke-linecap="round" stroke-linejoin="round" stroke-opacity=".8"/>
<path d="m8.0002 2.5644 1.6484 4.2789 4.5721 0.24024-3.5532 2.8938 1.1735 4.4263-3.8407-2.488-3.8407 2.488 1.1735-4.4263-3.5532-2.8938 4.5721-0.24024z" fill="#525252" fill-opacity=".67826"/>
</svg>
